icons/line/inbox-in.svg

<svg width="24" height="24" viewBox="0 0 24 24" fill="none" xmlns="http://www.w3.org/2000/svg">
<path d="M4 14L4 18C4 19.1046 4.89543 20 6 20L18 20C19.1046 20 20 19.1046 20 18L20 14M4 14L4 6C4 4.89543 4.89543 4 6 4L7 4M4 14L8 14C8.55228 14 9 14.4477 9 15V15C9 15.5523 9.44772 16 10 16L14 16C14.5523 16 15 15.5523 15 15V15C15 14.4477 15.4477 14 16 14L20 14M20 14L20 6C20 4.89543 19.1046 4 18 4L17 4M12 11L9 8M12 11L15 8M12 11L12 3" stroke="currentColor" stroke-width="2" stroke-linecap="round" stroke-linejoin="round"/>
</svg>

<svg width="24" height="24" fill="none" xmlns="http://www.w3.org/2000/svg"><path d="M4 14v4a2 2 0 002 2h12a2 2 0 002-2v-4M4 14V6a2 2 0 012-2h1M4 14h4a1 1 0 011 1v0a1 1 0 001 1h4a1 1 0 001-1v0a1 1 0 011-1h4m0 0V6a2 2 0 00-2-2h-1m-5 7L9 8m3 3l3-3m-3 3V3" stroke="currentColor" stroke-width="2" stroke-linecap="round" stroke-linejoin="round"/></svg>
